svg/furkot/freepik/theater.svg

<svg viewBox="0 0 512 512" xmlns="http://www.w3.org/2000/svg"><path d="m502.965 181.589c-.892-3.543-3.243-6.535-6.461-8.262-3.21-1.717-7.004-2.008-10.446-.799-30.179 10.602-76.742 17.425-129.111 17.425-12.731 0-25.002-.486-36.899-1.251-6.152 27.793-15.982 53.313-28.537 75.789.61-.025 1.194-.125 1.81-.125 16.273 0 29.462-1.357 29.462 9.605s-13.19 30.095-29.462 30.095c-9.479 0-17.825-3.067-23.21-7.752-16.264 20.192-35.264 36.114-56.189 46.643 23.592 79.409 78.749 135.116 143.025 135.116 85.751 0 155.264-99.136 155.264-221.426-.001-26.379-3.295-51.622-9.246-75.058zm-84.143 231.829c-.274 1.167-1.143 2.118-2.283 2.493-1.144.382-2.401.141-3.319-.635-12.096-10.163-32.671-16.915-56.272-16.915-23.602 0-44.178 6.752-56.272 16.915-.919.768-2.178 1.009-3.319.635-1.142-.383-2.009-1.326-2.284-2.493-1.001-4.261-1.617-8.653-1.617-13.222 0-35.066 28.429-63.493 63.494-63.493 35.064 0 63.491 28.428 63.491 63.493-.002 4.569-.618 8.962-1.619 13.222zm1.751-109.353c-16.274 0-29.462-19.133-29.462-30.095s13.189-9.605 29.462-9.605c16.272 0 29.462 8.888 29.462 19.85-.001 10.962-13.19 19.85-29.462 19.85z"/><path d="m310.527 118.989c0-26.377-3.293-51.62-9.245-75.056-.892-3.542-3.243-6.536-6.461-8.262-1.901-1.016-4.01-1.533-6.136-1.533-1.452 0-2.91.24-4.31.734-30.178 10.603-76.74 17.423-129.11 17.423-52.371 0-98.933-6.82-129.112-17.423-1.392-.494-2.842-.734-4.293-.734-2.125 0-4.244.522-6.154 1.542-3.209 1.725-5.568 4.718-6.461 8.253-5.951 23.437-9.245 48.679-9.245 75.056 0 122.292 69.512 221.425 155.265 221.425 85.751 0 155.262-99.133 155.262-221.425zm-248.352 27.52c0-10.964 13.19-19.85 29.463-19.85s29.462 19.131 29.462 30.095c0 10.962-13.189 9.605-29.462 9.605s-29.463-8.888-29.463-19.85zm93.09 152.044c-35.066 0-63.493-28.427-63.493-63.49 0-4.569.616-8.964 1.617-13.224.275-1.165 1.143-2.108 2.284-2.493 1.143-.375 2.4-.133 3.318.634 12.096 10.163 32.671 16.916 56.273 16.916s44.177-6.753 56.271-16.916c.919-.776 2.177-1.016 3.319-.634 1.142.377 2.009 1.328 2.284 2.493 1 4.26 1.617 8.655 1.617 13.224.001 35.063-28.426 63.49-63.49 63.49zm34.162-141.799c0-10.964 13.19-30.095 29.463-30.095s29.462 8.886 29.462 19.85c0 10.962-13.189 19.85-29.462 19.85s-29.463 1.357-29.463-9.605z"/></svg>

<svg xmlns="http://www.w3.org/2000/svg" viewBox="0 0 512 512"><path d="M502.965 181.589C502.073 178.046 499.722 175.054 496.504 173.327 493.294 171.61 489.5 171.319 486.058 172.528 455.879 183.13 409.316 189.953 356.947 189.953 344.216 189.953 331.945 189.467 320.048 188.702 313.896 216.495 304.066 242.015 291.511 264.491 292.121 264.466 292.705 264.366 293.321 264.366 309.594 264.366 322.783 263.009 322.783 273.971 322.783 284.933 309.593 304.066 293.321 304.066 283.842 304.066 275.496 300.999 270.111 296.314 253.847 316.506 234.847 332.428 213.922 342.957 237.514 422.366 292.671 478.073 356.947 478.073 442.698 478.073 512.211 378.937 512.211 256.647 512.21 230.268 508.916 205.025 502.965 181.589ZM418.822 413.418C418.548 414.585 417.679 415.536 416.539 415.911 415.395 416.293 414.138 416.052 413.22 415.276 401.124 405.113 380.549 398.361 356.948 398.361 333.346 398.361 312.77 405.113 300.676 415.276 299.757 416.044 298.498 416.285 297.357 415.911 296.215 415.528 295.348 414.585 295.073 413.418 294.072 409.157 293.456 404.765 293.456 400.196 293.456 365.13 321.885 336.703 356.95 336.703 392.014 336.703 420.441 365.131 420.441 400.196 420.439 404.765 419.823 409.158 418.822 413.418ZM420.573 304.065C404.299 304.065 391.111 284.932 391.111 273.97 391.111 263.008 404.3 264.365 420.573 264.365 436.845 264.365 450.035 273.253 450.035 284.215 450.034 295.177 436.845 304.065 420.573 304.065Z"/><path d="M310.527 118.989C310.527 92.612 307.234 67.369 301.282 43.933 300.39 40.391 298.039 37.397 294.821 35.671 292.92 34.655 290.811 34.138 288.685 34.138 287.233 34.138 285.775 34.378 284.375 34.872 254.197 45.475 207.635 52.295 155.265 52.295 102.894 52.295 56.332 45.475 26.153 34.872 24.761 34.378 23.311 34.138 21.86 34.138 19.735 34.138 17.616 34.66 15.706 35.68 12.497 37.405 10.138 40.398 9.245 43.933 3.294 67.37 0 92.612 0 118.989 0 241.281 69.512 340.414 155.265 340.414 241.016 340.414 310.527 241.281 310.527 118.989ZM62.175 146.509C62.175 135.545 75.365 126.659 91.638 126.659 107.911 126.659 121.1 145.79 121.1 156.754 121.1 167.716 107.911 166.359 91.638 166.359 75.365 166.359 62.175 157.471 62.175 146.509ZM155.265 298.553C120.199 298.553 91.772 270.126 91.772 235.063 91.772 230.494 92.388 226.099 93.389 221.839 93.664 220.674 94.532 219.731 95.673 219.346 96.816 218.971 98.073 219.213 98.991 219.98 111.087 230.143 131.662 236.896 155.264 236.896 178.866 236.896 199.441 230.143 211.535 219.98 212.454 219.204 213.712 218.964 214.854 219.346 215.996 219.723 216.863 220.674 217.138 221.839 218.138 226.099 218.755 230.494 218.755 235.063 218.756 270.126 190.329 298.553 155.265 298.553ZM189.427 156.754C189.427 145.79 202.617 126.659 218.89 126.659 235.163 126.659 248.352 135.545 248.352 146.509 248.352 157.471 235.163 166.359 218.89 166.359 202.617 166.359 189.427 167.716 189.427 156.754Z"/></svg>
